static/logos/sender-wordmark-color.svg

<svg width="100" height="30" viewBox="0 0 100 30" fill="none" xmlns="http://www.w3.org/2000/svg">
<g clip-path="url(#clip0_1_1155)">
<path d="M56.3664 18.2133C57.1855 18.4754 57.5622 18.672 57.5622 19.704C57.5622 20.8669 57.1527 21.08 55.6784 21.08C54.8922 21.08 54.237 21.0636 52.0911 21.0144L51.9601 22.5215C53.5981 22.849 54.9413 22.8817 55.6293 22.8817C58.5287 22.8817 59.6426 22.2921 59.6426 19.7202C59.6426 18.0659 59.102 17.001 57.3165 16.4277L55.1379 15.7561C54.2533 15.4776 53.8766 15.2484 53.8766 14.2492C53.8766 13.0369 54.3845 12.955 55.7604 12.955C56.8741 12.955 58.1848 12.9878 59.1184 13.0206L59.2493 11.5628C58.0371 11.2514 56.7759 11.1859 55.6947 11.1859C52.9919 11.1859 51.8125 11.6282 51.8125 14.2165C51.8125 15.9037 52.4187 16.9519 54.0895 17.4926L56.3664 18.2133Z" fill="#242322"/>
<path d="M62.3771 18.115C62.4261 16.4277 62.8849 16.0019 64.2607 16.0019C65.4893 16.0019 65.8495 16.3295 65.8495 17.1813C65.8495 17.6071 65.7676 18.115 65.1289 18.115H62.3771ZM65.6857 19.5073C67.1764 19.5073 67.8317 18.6555 67.8317 17.2139C67.8317 15.3957 66.7832 14.4293 64.1788 14.4293C61.4598 14.4293 60.2969 15.4776 60.2969 18.6555C60.2969 21.7024 61.3941 22.8818 64.3099 22.8818C65.3254 22.8818 66.7671 22.7507 67.6187 22.341L67.4387 21.0635C66.4721 21.178 65.3254 21.2599 64.5556 21.2599C63.1797 21.2599 62.5734 20.9653 62.4096 19.5073H65.6857Z" fill="#242322"/>
<path d="M70.4833 14.6589H68.8125V22.6855H70.8109V17.0994C71.9085 16.477 72.6454 16.1166 73.4483 16.1166C74.087 16.1166 74.3 16.3623 74.3 17.2632V22.6852H76.2984V16.6568C76.2984 15.2154 75.5121 14.4291 74.087 14.4291C72.9241 14.4291 71.761 14.9696 70.6144 15.8378L70.4833 14.6585" fill="#242322"/>
<path d="M82.9802 20.3592C82.0956 20.949 81.6696 21.1947 80.8671 21.1947C79.8023 21.1947 79.3601 20.7197 79.3601 18.6064C79.3601 16.4442 79.8023 16.051 80.9816 16.051C81.7026 16.051 82.2594 16.1985 82.9802 16.3786V20.3592ZM84.9785 11.2188H82.9802V13.5286C82.9802 14.0856 82.9965 14.6097 83.0619 15.134C82.2757 14.6425 81.342 14.4295 80.3919 14.4295C78.3609 14.4295 77.3125 15.4288 77.3125 18.6231C77.3125 21.3421 78.0988 22.8819 80.13 22.8819C81.4404 22.8819 82.5214 22.2593 83.2423 21.5877L83.4061 22.6855H84.9785V11.2189" fill="#242322"/>
<path d="M88.1037 18.115C88.153 16.4277 88.6116 16.0019 89.9875 16.0019C91.216 16.0019 91.5764 16.3295 91.5764 17.1813C91.5764 17.6071 91.4945 18.115 90.8558 18.115H88.1037ZM91.4126 19.5073C92.9034 19.5073 93.5586 18.6555 93.5586 17.2139C93.5586 15.3957 92.5101 14.4293 89.9056 14.4293C87.1866 14.4293 86.0234 15.4776 86.0234 18.6555C86.0234 21.7024 87.1209 22.8818 90.0366 22.8818C91.0522 22.8818 92.4938 22.7507 93.3455 22.341L93.1653 21.0635C92.199 21.178 91.0522 21.2599 90.2825 21.2599C88.9065 21.2599 88.3003 20.9653 88.1365 19.5073H91.4126Z" fill="#242322"/>
<path d="M99.9773 14.4294H99.5843C98.5358 14.4294 97.3729 14.9374 96.2754 15.8383L96.0952 14.6589H94.5391V22.6853H96.5374V17.0175C97.684 16.5589 98.4211 16.2966 99.1913 16.2966H99.7643L99.9773 14.4293" fill="#242322"/>
<path fill-rule="evenodd" clip-rule="evenodd" d="M34.5763 0.000732422L31.4122 2.6701H35.4331L18.4688 15.9599V19.8457L37.1864 4.64315V7.94435L39.7569 5.74935V0.000732422H34.5763Z" fill="url(#paint0_linear_1_1155)"/>
<path fill-rule="evenodd" clip-rule="evenodd" d="M34.5164 16.7166V26.5866H2.57066V5.33689H22.078L25.3327 2.77216H0V29.1513H37.087V14.6911L34.5169 16.7166" fill="url(#paint1_linear_1_1155)"/>
<path fill-rule="evenodd" clip-rule="evenodd" d="M6.5 9.36547L18.4704 15.9605V19.8442L6.5 12.0034V9.36526" fill="url(#paint2_linear_1_1155)"/>
</g>
<defs>
<linearGradient id="paint0_linear_1_1155" x1="39.7751" y1="0.0185388" x2="19.2078" y2="20.5858" gradientUnits="userSpaceOnUse">
<stop stop-color="#F57724"/>
<stop offset="1" stop-color="#ED1E24"/>
</linearGradient>
<linearGradient id="paint1_linear_1_1155" x1="28.5344" y1="5.9709" x2="2.67749" y2="31.8279" gradientUnits="userSpaceOnUse">
<stop stop-color="#F57724"/>
<stop offset="1" stop-color="#ED1E24"/>
</linearGradient>
<linearGradient id="paint2_linear_1_1155" x1="14.8003" y1="12.2908" x2="10.7935" y2="16.2976" gradientUnits="userSpaceOnUse">
<stop stop-color="#F57724"/>
<stop offset="1" stop-color="#ED1E24"/>
</linearGradient>
<clipPath id="clip0_1_1155">
<rect width="100" height="29.2285" fill="white"/>
</clipPath>
</defs>
</svg>

<svg xmlns="http://www.w3.org/2000/svg" width="213.333" height="64" fill="none" viewBox="0 0 100 30"><g clip-path="url(#a)"><path fill="#242322" d="M56.366 18.213c.82.262 1.196.459 1.196 1.491 0 1.163-.41 1.376-1.884 1.376-.786 0-1.441-.016-3.587-.066l-.13 1.508c1.637.327 2.98.36 3.668.36 2.9 0 4.014-.59 4.014-3.162 0-1.654-.541-2.719-2.327-3.292l-2.178-.672c-.885-.278-1.261-.508-1.261-1.507 0-1.212.508-1.294 1.883-1.294 1.114 0 2.425.033 3.358.066l.131-1.458c-1.212-.312-2.473-.377-3.554-.377-2.703 0-3.883.442-3.883 3.03 0 1.688.607 2.736 2.278 3.277l2.276.72ZM62.377 18.115c.05-1.687.508-2.113 1.884-2.113 1.228 0 1.589.328 1.589 1.18 0 .425-.082.933-.721.933h-2.752Zm3.309 1.392c1.49 0 2.146-.852 2.146-2.293 0-1.818-1.049-2.785-3.653-2.785-2.72 0-3.882 1.049-3.882 4.226 0 3.047 1.097 4.227 4.013 4.227 1.015 0 2.457-.131 3.309-.541l-.18-1.277c-.967.114-2.114.196-2.883.196-1.376 0-1.983-.295-2.146-1.753h3.276ZM70.483 14.659h-1.67v8.027h1.998v-5.587c1.097-.622 1.834-.982 2.637-.982.639 0 .852.245.852 1.146v5.422h1.998v-6.028c0-1.442-.786-2.228-2.211-2.228-1.163 0-2.326.54-3.473 1.409l-.13-1.18M82.98 20.36c-.884.589-1.31.835-2.113.835-1.065 0-1.507-.475-1.507-2.589 0-2.162.442-2.555 1.622-2.555.72 0 1.277.148 1.998.328v3.98Zm1.998-9.141H82.98v2.31c0 .557.016 1.08.082 1.605-.786-.492-1.72-.704-2.67-.704-2.031 0-3.08.999-3.08 4.193 0 2.72.787 4.259 2.818 4.259 1.31 0 2.391-.623 3.112-1.294l.164 1.098h1.572V11.219M88.104 18.115c.049-1.687.508-2.113 1.883-2.113 1.229 0 1.59.328 1.59 1.18 0 .425-.082.933-.721.933h-2.752Zm3.309 1.392c1.49 0 2.146-.852 2.146-2.293 0-1.818-1.049-2.785-3.653-2.785-2.72 0-3.883 1.049-3.883 4.226 0 3.047 1.098 4.227 4.014 4.227 1.015 0 2.457-.131 3.308-.541l-.18-1.277c-.966.114-2.113.196-2.883.196-1.376 0-1.982-.295-2.145-1.753h3.276ZM99.977 14.43h-.393c-1.048 0-2.211.507-3.309 1.408l-.18-1.18H94.54v8.027h1.998v-5.668c1.147-.458 1.884-.72 2.654-.72h.573l.213-1.868"/><path fill="url(#b)" fill-rule="evenodd" d="m34.576 0-3.164 2.67h4.021L18.47 15.96v3.886L37.186 4.643v3.301l2.57-2.195V.001h-5.18Z" clip-rule="evenodd"/><path fill="url(#c)" fill-rule="evenodd" d="M34.516 16.717v9.87H2.571V5.337h19.507l3.255-2.565H0v26.38h37.087v-14.46l-2.57 2.025" clip-rule="evenodd"/><path fill="url(#d)" fill-rule="evenodd" d="m6.5 9.365 11.97 6.595v3.884L6.5 12.004V9.364" clip-rule="evenodd"/></g><defs><linearGradient id="b" x1="39.775" x2="19.208" y1=".019" y2="20.586" gradientUnits="userSpaceOnUse"><stop stop-color="#F57724"/><stop offset="1" stop-color="#ED1E24"/></linearGradient><linearGradient id="c" x1="28.534" x2="2.677" y1="5.971" y2="31.828" gradientUnits="userSpaceOnUse"><stop stop-color="#F57724"/><stop offset="1" stop-color="#ED1E24"/></linearGradient><linearGradient id="d" x1="14.8" x2="10.793" y1="12.291" y2="16.298" gradientUnits="userSpaceOnUse"><stop stop-color="#F57724"/><stop offset="1" stop-color="#ED1E24"/></linearGradient><clipPath id="a"><path fill="#fff" d="M0 0h100v29.229H0z"/></clipPath></defs></svg>
